!!!OTL: 335. Laudon vor Belgrad (1789).
!!!ARE: Europa, Mitteleuropa, Deutschland, Franken; Oesterreich
!!!SCT: E0335
!!!TXL: @@DE
!!!YEM: Copyright 1995, estate of Helmut Schaffrath.
**kern	**text
*ICvox	*
*M6/8	*
*k[f#c#g#]	*
*A:	*
!LO:TX:a:t=Ziemlich lebhaft.	!
!LO:TX:a:t=Ditfurt, öſterr. Heerlieder. Nr. 31.	!
{8e	Mar-
=1	=1
8e	-ſchie-
8a	-ren
8a	wir
4a	in
8b/	das
=2	=2
8a	tür-
8g#	-ki-
8f#	-ſche
4e}	Land,
{8e	Stadt
=3	=3
8e	Bel-
8cc#	-ga-
8cc#	-rad
4cc#	iſt
8cc#	uns
=4	=4
4cc#	wohl-
8ee	-be-
4cc#;}	-kannt;
{8a	mar-
=5	=5
8a	-ſchie-
8cc#	-ren
8cc#	wir
4cc#	in
8cc#	das
=6	=6
4cc#	wei-
8ee	-te
4cc#}	Feld,
{8cc#	bei
=7	=7
8b	Bel-
8b	-ga-
8b	-rad
8ee	ü-
8ee	-bers
8dd	Ge-
=8	=8
(4cc#	-bir-
8b)	.
4a;}	-ge.
{8e	Da
=9	=9
8eL	kam
8aJ	.
8a	da-
4a	-her
8b/	ein
=10	=10
8aL	ſtar-
8g#J	.
8f#	-ker
4e}	Held,
{8e	ʒum
=11	=11
8eL	Trutʒ
8cc#J	.
8cc#	der
8eeL	ſtol-
8ddJ	.
8cc#	-ʒen
=12	=12
4.b/	Tür-
4a}	-ken.
==	==
!!!AGN: historisches Lied, Krieg gegen die Tuerken (1789)
!!!ONB: ESAC (Essen Associative Code) Database: ERK1
!!!AMT: compound duple
!!!AIN: vox
!!!EED: Helmut Schaffrath
!!!EEV: 1.0
!!!GTL: Historische Lieder
!!!URL-scan: https://rosdok.uni-rostock.de/mcrviewer/recordIdentifier/rosdok_ppn745177662/iview2/phys_0150.iview2?x=-544.0401362767932&y=765.6499396947911&scale=0.4722427387526479&rotation=0&layout=singlePageLayout
!!!ENC: Anna Maria Matuszewska
!!!EEV: 2024/06/12
*-	*-
